X: 209
T: Sheila Coyle's
M:4/4
R:reel
L:1/8
K:D
"D"FA ~A2 FADF|ADFA "G(Bm)"BAGF|"G"GBBA ~B3B|"D"ABdf "A"edBA|
"D"FA ~A2 FADF|ADFA "G(Bm)"BAGF|"G"GB~B2 "D"AFDF|"A"EFGE "D"FDD2:|
"D"dffe fgfe|"G"dcdB "D"AFDF|"A"A~c3 c2dc|"G"~B3A BAFA|
"D"dffe fgfe|"G"dcdB "D"AFDF|"G"GB~B2 "D"AFDF|"A"EFGE "D"FDD2:|


